X:60
T:Trip to Gallaway THO4.060
M:C
L:1/8
Z:vmp. Peter Dunk 2010/11.from a transcription by Fynn Titford-Mock 2007
B:Thompson's Compleat Collection of 200 Favourite Country Dances Volume IV.
Q:1/4=140
K:A
f|eAcA GABd|cAeA fAaf|eAcA GABd|cAac A/A/A A:|
E|CEAc BEcE|BEec  BGFE|CEAc BEcE|afec A/A/A A:|
